images/logo.svg

<svg
  width="73"
  height="73"
  viewBox="0 0 73 73"
  fill="none"
  xmlns="http://www.w3.org/2000/svg"
>
  <g clip-path="url(#clip0)">
    <path
      d="M11.1393 12.905L11.2119 0.204651L0 11.1494L11.1393 12.905Z"
      fill="#E30074"
    />
    <path
      d="M23.3384 16.7297L28.3475 11.3334C28.4609 11.2131 28.3021 10.911 28.0365 10.7384L11.7543 0.229667C11.3934 0.0025501 11.1733 0.195599 11.4139 0.534003L22.6848 16.4322C22.8731 16.7025 23.2181 16.8569 23.3384 16.7297Z"
      fill="#E30074"
    />
    <path
      d="M10.6807 14.0699L12.3489 6.9975L10.1428 13.4476C10.1185 13.5208 10.1198 13.6001 10.1466 13.6723C10.1735 13.7446 10.2242 13.8056 10.2903 13.8451L10.6807 14.0699Z"
      fill="#8A3C45"
    />
    <path
      d="M46.6927 10.4429L62.0126 33.4363L43.5016 58.3488L27.3691 27.3972L46.6927 10.4429Z"
      fill="#009FDB"
    />
    <path
      d="M60.0743 36.2342L63.919 31.617C63.968 31.5566 63.9948 31.4812 63.9948 31.4035C63.9948 31.3257 63.968 31.2503 63.919 31.19L47.3848 10.6313C47.3336 10.5653 47.2595 10.5209 47.1772 10.5069C47.0949 10.4928 47.0103 10.5102 46.9401 10.5556C46.87 10.601 46.8194 10.671 46.7984 10.7519C46.7773 10.8328 46.7874 10.9186 46.8265 10.9924L59.5159 36.1729C59.5412 36.2226 59.5785 36.2652 59.6243 36.2969C59.6702 36.3285 59.7232 36.3483 59.7786 36.3544C59.8339 36.3605 59.89 36.3527 59.9416 36.3317C59.9932 36.3107 60.0388 36.2772 60.0743 36.2342Z"
      fill="#EE7203"
    />
    <path
      d="M69.5771 26.4888L72.9996 50.1226L46.772 10.4475L69.5771 26.4888Z"
      fill="#F59C00"
    />
    <path
      d="M37.9776 64.1606L44.5821 56.7951C44.6994 56.6638 44.7728 56.4991 44.7919 56.324C44.811 56.1489 44.775 55.9721 44.6888 55.8185L28.8991 27.8082C28.8609 27.7419 28.8143 27.6809 28.7606 27.6265C28.6362 27.5022 28.4761 27.4199 28.3027 27.391C28.1293 27.3621 27.9512 27.3881 27.7933 27.4654C27.6354 27.5426 27.5055 27.6673 27.4217 27.822C27.338 27.9767 27.3046 28.1537 27.3262 28.3283L31.6862 63.5314C32.0607 67.0131 36.929 67.4946 37.9776 64.1515V64.1606Z"
      fill="#F59C00"
    />
    <path
      d="M28.1821 62.005L32.4059 64.9621L28.3569 27.8625L28.1821 62.005Z"
      fill="#007BC3"
    />
    <path
      d="M28.1816 62.005L28.3564 27.8625L1.21631 42.1254L28.1816 62.005Z"
      fill="#009FDB"
    />
    <path
      d="M27.3735 25.3577L28.9214 27.7788L5.9869 45.6938L1.2207 42.1258C1.2207 42.1258 2.35551 39.9409 2.82759 39.766C3.29967 39.5912 27.3735 25.3577 27.3735 25.3577Z"
      fill="#E84E0F"
    />
    <path
      d="M11.1209 0.0774536L1.21631 42.1259L28.9215 27.779L11.1209 0.0774536Z"
      fill="#F59C00"
    />
    <path
      d="M24.6684 21.1103L25.3243 15.4324L11.1392 -0.0115967C11.1392 0.270029 13.2408 3.27251 13.2499 3.28614L24.6684 21.1103Z"
      fill="#892A81"
    />
    <path
      d="M27.3691 61.3806L36.0799 72.9999L61.9786 33.8404L36.0799 65.7367L27.3691 61.3806Z"
      fill="#E30074"
    />
  </g>
  <defs>
    <clipPath id="clip0">
      <rect width="73" height="73" fill="white" />
    </clipPath>
  </defs>
</svg>

<svg width="73" height="73" fill="none" xmlns="http://www.w3.org/2000/svg"><g clip-path="url(#clip0)"><path d="M11.14 12.905l.072-12.7L0 11.149l11.14 1.756zM23.338 16.73l5.01-5.397c.113-.12-.046-.422-.311-.595L11.753.23c-.36-.227-.58-.034-.34.304l11.27 15.898c.19.27.534.425.654.298z" fill="#E30074"/><path d="M10.68 14.07l1.669-7.073-2.206 6.45a.339.339 0 00.147.398l.39.225z" fill="#8A3C45"/><path d="M46.693 10.443l15.32 22.993L43.502 58.35 27.369 27.397l19.324-16.954z" fill="#009FDB"/><path d="M60.074 36.234l3.845-4.617a.339.339 0 000-.427L47.385 10.631a.334.334 0 00-.558.361l12.689 25.18a.337.337 0 00.558.062z" fill="#EE7203"/><path d="M69.577 26.489L73 50.123 46.772 10.448l22.805 16.04zM37.978 64.16l6.604-7.365a.845.845 0 00.107-.977l-15.79-28.01a.844.844 0 00-1.573.52l4.36 35.203c.375 3.482 5.243 3.964 6.292.62v.01z" fill="#F59C00"/><path d="M28.182 62.005l4.224 2.957-4.05-37.1-.174 34.143z" fill="#007BC3"/><path d="M28.182 62.005l.174-34.142-27.14 14.262 26.966 19.88z" fill="#009FDB"/><path d="M27.373 25.358l1.548 2.42L5.987 45.695 1.22 42.126s1.135-2.185 1.607-2.36c.472-.175 24.546-14.408 24.546-14.408z" fill="#E84E0F"/><path d="M11.12.077L1.217 42.126l27.706-14.347L11.12.077z" fill="#F59C00"/><path d="M24.668 21.11l.656-5.678L11.14-.012c0 .282 2.102 3.285 2.11 3.298L24.67 21.11z" fill="#892A81"/><path d="M27.37 61.38L36.08 73l25.899-39.16-25.9 31.897-8.71-4.356z" fill="#E30074"/></g><defs><clipPath id="clip0"><path fill="#fff" d="M0 0h73v73H0z"/></clipPath></defs></svg>
